assets/languages/elixir.svg

<?xml version="1.0" encoding="UTF-8" standalone="no"?>
<svg width="16px" height="25px" viewBox="0 0 259 398" version="1.1" xmlns="http://www.w3.org/2000/svg" xmlns:xlink="http://www.w3.org/1999/xlink">
    <!-- Generator: Sketch 47.1 (45422) - http://www.bohemiancoding.com/sketch -->
    <title>elixir</title>
    <desc>Created with Sketch.</desc>
    <defs>
        <linearGradient x1="52.257582%" y1="7.38900791%" x2="50%" y2="100%" id="linearGradient-1">
            <stop stop-color="#D9D8DC" offset="0%"></stop>
            <stop stop-color="#FFFFFF" stop-opacity="0.385275136" offset="100%"></stop>
        </linearGradient>
        <linearGradient x1="71.1793234%" y1="7.69121524%" x2="50%" y2="100%" id="linearGradient-2">
            <stop stop-color="#8D67AF" stop-opacity="0.671931612" offset="0%"></stop>
            <stop stop-color="#9F8DAF" offset="100%"></stop>
        </linearGradient>
        <linearGradient x1="54.2330909%" y1="31.4346391%" x2="54.2330921%" y2="98.2279808%" id="linearGradient-3">
            <stop stop-color="#26053D" stop-opacity="0.761633832" offset="0%"></stop>
            <stop stop-color="#B7B4B4" stop-opacity="0.277683424" offset="100%"></stop>
        </linearGradient>
        <linearGradient x1="10.1328773%" y1="12.5388606%" x2="50%" y2="92.7678007%" id="linearGradient-4">
            <stop stop-color="#91739F" stop-opacity="0.459550498" offset="0%"></stop>
            <stop stop-color="#32054F" stop-opacity="0.539911685" offset="100%"></stop>
        </linearGradient>
        <linearGradient x1="80.0227759%" y1="96.4102284%" x2="9.64747494%" y2="21.2268885%" id="linearGradient-5">
            <stop stop-color="#463D49" stop-opacity="0.331182065" offset="0%"></stop>
            <stop stop-color="#340A50" stop-opacity="0.821388134" offset="100%"></stop>
        </linearGradient>
        <linearGradient x1="76.3466744%" y1="7.41856094%" x2="50%" y2="100%" id="linearGradient-6">
            <stop stop-color="#715383" stop-opacity="0.145238904" offset="0%"></stop>
            <stop stop-color="#F4F4F4" stop-opacity="0.23363904" offset="100%"></stop>
        </linearGradient>
        <linearGradient x1="131.791875%" y1="72.6651407%" x2="11.3471758%" y2="50%" id="linearGradient-7">
            <stop stop-color="#A5A1A8" stop-opacity="0.356091486" offset="0%"></stop>
            <stop stop-color="#370C50" stop-opacity="0.581974638" offset="100%"></stop>
        </linearGradient>
    </defs>
    <g id="Page-1" stroke="none" stroke-width="1" fill="none" fill-rule="evenodd">
        <g id="elixir">
            <path d="M140.472938,1 C111.602703,11.2333466 83.7333503,41.1017508 56.8648789,90.6052125 C16.5621719,164.860405 -35.4907126,270.378412 36.186531,353.922978 C69.3465821,392.57321 124.097956,415.384333 195.950939,379.25648 C253.673562,350.233406 269.726906,266.94422 249.00363,227.805207 C206.25568,147.069292 162.885991,127.155982 151.272432,77.0870852 C143.530059,43.7078208 139.930228,18.3454591 140.472938,1 Z" id="Path" fill="url(#linearGradient-1)"></path>
            <path d="M140.472938,0 C111.456235,10.338845 83.5868817,40.2072491 56.8648789,89.6052125 C16.7818748,163.702158 -35.4907126,269.378412 36.186531,352.922978 C69.3465821,391.57321 123.393327,404.062796 153.382712,381.140016 C172.933291,366.196275 186.230052,351.951696 193.890904,321.938657 C202.421104,288.519757 195.87622,243.527427 191.391619,222.858673 C185.716848,196.704627 183.859454,167.998685 185.819438,136.740847 C185.128812,135.899437 184.612743,135.269758 184.271231,134.85181 C168.658409,115.744561 156.610662,99.1014991 151.272432,76.0870852 C143.530059,42.7078208 139.930228,17.3454591 140.472938,0 Z" id="Path" fill="url(#linearGradient-2)"></path>
            <path d="M116.446645,13 C89.4198421,34.3601182 69.3247923,70.1883786 56.1614953,120.484781 C36.4165499,195.929385 34.2769645,265.501481 41.2406841,305.968012 C54.7402677,384.414781 124.726509,414.192346 196.512885,377.678262 C240.691183,355.207006 259.091711,306.972725 258.116873,254.616461 C257.107493,200.405019 152.347946,138.965815 133.795144,93.7230375 C121.42661,63.5611858 115.643777,36.6535067 116.446645,13 Z" id="Path" fill="url(#linearGradient-3)"></path>
            <path d="M184.965347,154.444077 C217.378723,196.013393 224.444218,224.950649 206.161832,241.255845 C178.738251,265.71364 111.676176,281.671479 69.9564795,252.085746 C42.1433486,232.361923 31.6198698,190.04989 38.386043,125.149647 C26.9047822,149.127258 17.1972537,173.416734 9.26345754,198.018075 C1.32966136,222.619417 -0.987150514,248.3643 2.31302191,275.252725 C12.255885,295.36806 36.4305933,308.802651 74.8371468,315.556498 C132.446977,325.687268 186.973273,320.681493 223.560615,302.237693 C247.952177,289.941826 259.489232,277.701706 258.171782,265.517333 C259.052007,247.524433 253.503535,230.396255 241.526367,214.1328 C229.549199,197.869345 210.695526,177.973104 184.965347,154.444077 Z" id="Path-2" fill="url(#linearGradient-4)"></path>
            <path d="M58.2996617,112.936381 C58.0287192,142.957891 65.7480504,171.496927 81.4576551,198.553489 C105.022062,239.138332 132.528366,279.241309 173.689097,312.48299 C201.129585,334.64411 223.055648,341.803929 239.467288,333.962446 C225.98749,358.086951 211.654509,369.908168 196.468344,369.426095 C173.689097,368.702986 145.913563,358.747849 101.410106,305.267821 C71.741135,269.614469 51.444543,235.888753 40.5203298,204.090672 C42.2526785,191.475899 44.0896445,178.911218 46.0312278,166.396631 C47.9728111,153.882043 52.0622891,136.06196 58.2996617,112.936381 Z" id="Path-3" fill="url(#linearGradient-5)"></path>
            <path d="M127.91562,154.135924 C130.433463,178.592278 139.950118,217.713796 127.91562,243.760961 C115.881123,269.808126 60.294909,316.86301 75.6388929,358.314331 C90.9828768,399.765653 128.376316,390.459602 151.832303,371.356718 C175.28829,352.253834 187.843656,321.191668 190.626633,299.347175 C193.409611,277.502683 183.968172,235.470321 180.897494,198.909894 C178.850376,174.536277 180.239324,153.638586 185.064339,136.216822 L177.876874,127.172322 L135.57181,114.646435 C128.789122,124.668524 126.237059,137.831687 127.91562,154.135924 Z" id="Path-7" fill="url(#linearGradient-6)"></path>
            <path d="M143.016768,33 C129.324368,38.7857237 116.351491,50.2499631 104.098135,67.3927183 C85.7181024,93.106851 76.3567044,108.520862 83.2860336,159.492684 C87.9055864,193.473899 91.2120747,224.735973 93.2054984,253.278908 L152.458619,81.1207662 C150.280267,72.3485372 148.468486,64.4260957 147.023277,57.3534417 C145.578069,50.2807877 144.242566,42.1629738 143.016768,33 Z" id="Path-5" fill="url(#linearGradient-7)"></path>
            <path d="M152.344997,80.7784816 C137.303268,89.558022 125.64792,107.545139 117.378951,134.739833 C109.109983,161.934527 101.544972,199.95201 94.6839161,248.792282 C103.834869,217.727988 109.905113,195.228256 112.894649,181.293087 C117.378951,160.390333 118.910668,130.831363 130.817464,110.763568 C138.755328,97.385038 145.931173,87.3900091 152.344997,80.7784816 Z" id="Path-6" fill-opacity="0.316321332" fill="#330A4C"></path>
            <path d="M82.6983396,372.15777 C107.451693,375.694184 120.395341,378.83818 121.529283,381.589755 C123.230196,385.717119 118.395859,389.492543 104.655513,386.955483 C95.4952815,385.26411 88.1762238,380.331539 82.6983396,372.15777 Z" id="Path-4" fill="#FFFFFF"></path>
            <path d="M95.1342121,33 C81.5189761,49.2650932 69.7212284,66.5086881 59.740969,84.7307848 C49.7607096,102.952881 42.6295067,116.547199 38.3473603,125.513737 C37.020157,132.201478 36.3723613,142.069356 36.4039732,155.117369 C36.4355851,168.165383 37.5641711,182.673361 39.7897312,198.641305 C41.7382363,167.372845 47.7032097,137.021622 57.6846516,107.587638 C67.6660934,78.1536537 80.1492802,53.2911077 95.1342121,33 Z" id="Path-9" fill-opacity="0.60326087" fill="#EDEDED"></path>
        </g>
    </g>
</svg>

<svg width="16" height="25" viewBox="0 0 259 398" xmlns="http://www.w3.org/2000/svg"><defs><linearGradient x1="52.258%" y1="7.389%" x2="50%" y2="100%" id="a"><stop stop-color="#D9D8DC" offset="0%"/><stop stop-color="#FFF" stop-opacity=".385" offset="100%"/></linearGradient><linearGradient x1="71.179%" y1="7.691%" x2="50%" y2="100%" id="b"><stop stop-color="#8D67AF" stop-opacity=".672" offset="0%"/><stop stop-color="#9F8DAF" offset="100%"/></linearGradient><linearGradient x1="54.233%" y1="31.435%" x2="54.233%" y2="98.228%" id="c"><stop stop-color="#26053D" stop-opacity=".762" offset="0%"/><stop stop-color="#B7B4B4" stop-opacity=".278" offset="100%"/></linearGradient><linearGradient x1="10.133%" y1="12.539%" x2="50%" y2="92.768%" id="d"><stop stop-color="#91739F" stop-opacity=".46" offset="0%"/><stop stop-color="#32054F" stop-opacity=".54" offset="100%"/></linearGradient><linearGradient x1="80.023%" y1="96.41%" x2="9.647%" y2="21.227%" id="e"><stop stop-color="#463D49" stop-opacity=".331" offset="0%"/><stop stop-color="#340A50" stop-opacity=".821" offset="100%"/></linearGradient><linearGradient x1="76.347%" y1="7.419%" x2="50%" y2="100%" id="f"><stop stop-color="#715383" stop-opacity=".145" offset="0%"/><stop stop-color="#F4F4F4" stop-opacity=".234" offset="100%"/></linearGradient><linearGradient x1="131.792%" y1="72.665%" x2="11.347%" y2="50%" id="g"><stop stop-color="#A5A1A8" stop-opacity=".356" offset="0%"/><stop stop-color="#370C50" stop-opacity=".582" offset="100%"/></linearGradient></defs><g fill="none" fill-rule="evenodd"><path d="M140.473 1c-28.87 10.233-56.74 40.102-83.608 89.605-40.303 74.255-92.356 179.773-20.678 263.318 33.16 38.65 87.911 61.461 159.764 25.333 57.723-29.023 73.776-112.312 53.053-151.45-42.748-80.737-86.118-100.65-97.732-150.719-7.742-33.38-11.342-58.742-10.8-76.087z" fill="url(#a)"/><path d="M140.473 0c-29.017 10.339-56.886 40.207-83.608 89.605-40.083 74.097-92.356 179.773-20.678 263.318 33.16 38.65 87.206 51.14 117.196 28.217 19.55-14.944 32.847-29.188 40.508-59.201 8.53-33.42 1.985-78.412-2.5-99.08-5.674-26.154-7.532-54.86-5.572-86.118l-1.548-1.89c-15.613-19.106-27.66-35.75-32.999-58.764-7.742-33.38-11.342-58.742-10.8-76.087z" fill="url(#b)"/><path d="M116.447 13C89.42 34.36 69.325 70.188 56.16 120.485 36.417 195.929 34.277 265.5 41.241 305.968c13.5 78.447 83.486 108.224 155.272 71.71 44.178-22.471 62.579-70.705 61.604-123.062-1.01-54.211-105.77-115.65-124.322-160.893-12.368-30.162-18.151-57.07-17.348-80.723z" fill="url(#c)"/><path d="M184.965 154.444c32.414 41.57 39.48 70.507 21.197 86.812-27.424 24.458-94.486 40.415-136.206 10.83-27.813-19.724-38.336-62.036-31.57-126.936-11.481 23.977-21.189 48.267-29.123 72.868-7.933 24.601-10.25 50.346-6.95 77.235 9.943 20.115 34.118 33.55 72.524 40.303 57.61 10.131 112.136 5.125 148.724-13.318 24.391-12.296 35.928-24.536 34.61-36.72.881-17.994-4.667-35.122-16.645-51.385-11.977-16.264-30.83-36.16-56.56-59.689z" fill="url(#d)"/><path d="M58.3 112.936c-.271 30.022 7.448 58.56 23.158 85.617 23.564 40.585 51.07 80.688 92.231 113.93 27.44 22.161 49.367 29.32 65.778 21.48-13.48 24.124-27.812 35.945-42.999 35.463-22.779-.723-50.554-10.678-95.058-64.158-29.669-35.654-49.965-69.38-60.89-101.177 1.733-12.615 3.57-25.18 5.511-37.694 1.942-12.515 6.031-30.335 12.269-53.46z" fill="url(#e)"/><path d="M127.916 154.136c2.517 24.456 12.034 63.578 0 89.625-12.035 26.047-67.621 73.102-52.277 114.553 15.344 41.452 52.737 32.146 76.193 13.043 23.456-19.103 36.012-50.165 38.795-72.01 2.783-21.844-6.659-63.877-9.73-100.437-2.047-24.374-.658-45.271 4.167-62.693l-7.187-9.045-42.305-12.526c-6.783 10.023-9.335 23.186-7.656 39.49z" fill="url(#f)"/><path d="M143.017 33c-13.693 5.786-26.666 17.25-38.919 34.393-18.38 25.714-27.741 41.128-20.812 92.1 4.62 33.98 7.926 65.243 9.92 93.786L152.458 81.12c-2.179-8.772-3.99-16.695-5.436-23.768-1.445-7.072-2.78-15.19-4.006-24.353z" fill="url(#g)"/><path d="M152.345 80.778c-15.042 8.78-26.697 26.767-34.966 53.962-8.269 27.195-15.834 65.212-22.695 114.052 9.15-31.064 15.221-53.564 18.21-67.499 4.485-20.903 6.017-50.462 17.923-70.53 7.938-13.378 15.114-23.373 21.528-29.985z" fill-opacity=".316" fill="#330A4C"/><path d="M82.698 372.158c24.754 3.536 37.697 6.68 38.831 9.432 1.701 4.127-3.133 7.903-16.873 5.365-9.16-1.69-16.48-6.623-21.958-14.797z" fill="#FFF"/><path d="M95.134 33C81.52 49.265 69.721 66.509 59.741 84.73c-9.98 18.223-17.111 31.817-21.394 40.784-1.327 6.687-1.975 16.555-1.943 29.603.032 13.048 1.16 27.556 3.386 43.524 1.948-31.268 7.913-61.62 17.895-91.053C67.666 78.154 80.149 53.29 95.135 33z" fill-opacity=".603" fill="#EDEDED"/></g></svg>
